icons/themes/default/code-square.svg

<svg viewBox="0 0 20 20" fill="none" xmlns="http://www.w3.org/2000/svg">
<path d="M8.67647 7.35294L6.02941 10L8.67647 12.6471M11.3235 7.35294L13.9706 10L11.3235 12.6471M4.5 17.5H15.5C16.6046 17.5 17.5 16.6046 17.5 15.5V4.5C17.5 3.39543 16.6046 2.5 15.5 2.5H4.5C3.39543 2.5 2.5 3.39543 2.5 4.5V15.5C2.5 16.6046 3.39543 17.5 4.5 17.5Z" stroke="currentColor" stroke-width="1.1"/>
</svg>

<svg xmlns="http://www.w3.org/2000/svg" fill="none" viewBox="0 0 20 20">
  <path stroke="currentColor" stroke-width="1.1" d="M8.676 7.353 6.03 10l2.647 2.647m2.647-5.294L13.971 10l-2.648 2.647M4.5 17.5h11a2 2 0 0 0 2-2v-11a2 2 0 0 0-2-2h-11a2 2 0 0 0-2 2v11a2 2 0 0 0 2 2Z"/>
</svg>
